src/assets/logos/v2/solanafunded.svg

<svg width="842" height="112" viewBox="0 0 842 112" fill="none" xmlns="http://www.w3.org/2000/svg">
<path fill-rule="evenodd" clip-rule="evenodd" d="M18.0304 3.73912C10.2662 7.99126 1.67921 23.6117 1.67921 33.4772C1.67921 41.2678 8.53578 52.6996 11.3481 49.5961C12.3646 48.4745 14.5186 43.3817 16.1354 38.2767C21.6826 20.7525 24.8894 19.4549 62.6769 19.4549H96.1393L100.936 11.5127C103.574 7.14328 105.735 2.74696 105.74 1.73768C105.745 0.728413 87.5083 -0.0511407 65.2106 0.00262207C34.0404 0.0783783 23.1371 0.94102 18.0304 3.73912ZM34.3841 45.4127C32.3704 50.2805 30.7222 54.6792 30.7222 55.1872C30.7222 55.6957 38.8905 56.111 48.8741 56.111C68.0375 56.111 70.2548 57.7389 62.1854 65.8861C58.2768 69.8328 54.1188 70.7736 40.5871 70.7736H23.8318L17.9457 89.1017C14.7074 99.1824 12.718 107.425 13.5239 107.418C14.3299 107.411 27.2395 100.338 42.2087 91.7044C72.5804 74.185 88.6411 61.8932 93.7457 52.2623C96.8989 46.3141 96.7225 45.4489 91.5092 41.1872C86.8114 37.3456 81.7941 36.5612 61.9505 36.5612H38.0483L34.3841 45.4127Z" fill="url(#paint0_linear_1_70)"/>
<g clip-path="url(#clip0_1_70)">
<path d="M167.401 87.1146C163.435 87.1146 159.693 86.5281 156.174 85.3551C152.711 84.1262 149.806 82.1992 147.46 79.5739C145.114 76.8927 143.578 73.4016 142.852 69.1006H153.493C154.163 71.2791 155.224 72.9827 156.676 74.2116C158.185 75.4404 159.944 76.3062 161.955 76.8089C163.966 77.2558 166.005 77.4792 168.071 77.4792C169.915 77.4792 171.646 77.2558 173.266 76.8089C174.942 76.3062 176.31 75.4963 177.372 74.3791C178.489 73.262 179.047 71.7818 179.047 69.9385C179.047 68.542 178.74 67.4249 178.126 66.5871C177.567 65.6933 176.757 64.9672 175.696 64.4086C174.69 63.7942 173.462 63.3194 172.009 62.9843C170.613 62.5374 169.105 62.1464 167.485 61.8113C165.865 61.4761 164.273 61.113 162.709 60.722C161.145 60.331 159.665 59.8283 158.268 59.2139C156.481 58.5995 154.749 57.9012 153.074 57.1192C151.454 56.2814 150.029 55.276 148.801 54.103C147.628 52.93 146.678 51.4777 145.952 49.7461C145.226 48.0145 144.863 45.9478 144.863 43.5459C144.863 40.8089 145.309 38.4629 146.203 36.5079C147.153 34.4971 148.382 32.8493 149.89 31.5646C151.454 30.2798 153.185 29.2744 155.084 28.5483C157.039 27.8221 159.05 27.2915 161.117 26.9563C163.24 26.6212 165.25 26.4536 167.15 26.4536C170.836 26.4536 174.188 27.068 177.204 28.2969C180.276 29.5258 182.79 31.4249 184.745 33.9943C186.7 36.5638 187.817 39.8594 188.096 43.8811H177.958C177.735 41.9819 177.064 40.4738 175.947 39.3566C174.83 38.1836 173.434 37.3458 171.758 36.8431C170.082 36.2845 168.267 36.0052 166.312 36.0052C164.971 36.0052 163.631 36.1169 162.29 36.3403C161.005 36.5638 159.832 36.9548 158.771 37.5133C157.766 38.0719 156.928 38.826 156.257 39.7756C155.643 40.6693 155.336 41.8144 155.336 43.2108C155.336 44.4396 155.643 45.5289 156.257 46.4784C156.872 47.3722 157.71 48.1262 158.771 48.7407C159.888 49.3551 161.201 49.9137 162.709 50.4164C164.664 51.1984 166.787 51.7849 169.077 52.1759C171.423 52.5669 173.629 53.0975 175.696 53.7678C177.707 54.3264 179.55 55.0246 181.226 55.8625C182.957 56.6445 184.437 57.622 185.666 58.795C186.895 59.9121 187.845 61.3085 188.515 62.9843C189.241 64.6041 189.604 66.5591 189.604 68.8493C189.604 72.2007 188.99 75.0494 187.761 77.3954C186.588 79.6856 184.94 81.5568 182.818 83.0091C180.751 84.4614 178.377 85.5227 175.696 86.1929C173.071 86.8074 170.306 87.1146 167.401 87.1146Z" fill="white"/>
<path d="M226.639 87.1146C220.551 87.1146 215.356 85.8299 211.055 83.2604C206.81 80.691 203.542 77.1161 201.252 72.5358C199.018 67.9556 197.9 62.7329 197.9 56.8679C197.9 50.8912 199.046 45.6406 201.336 41.1161C203.626 36.5358 206.921 32.961 211.222 30.3916C215.523 27.7663 220.718 26.4536 226.807 26.4536C232.895 26.4536 238.062 27.7383 242.307 30.3078C246.608 32.8772 249.904 36.4521 252.194 41.0324C254.484 45.5568 255.629 50.7794 255.629 56.7003C255.629 62.5653 254.484 67.788 252.194 72.3683C249.959 76.9486 246.664 80.5514 242.307 83.1767C238.006 85.802 232.783 87.1146 226.639 87.1146ZM226.807 77.3954C231.052 77.3954 234.515 76.4179 237.196 74.4629C239.877 72.5079 241.832 69.9664 243.061 66.8384C244.346 63.7104 244.988 60.3869 244.988 56.8679C244.988 54.1867 244.625 51.6173 243.899 49.1596C243.229 46.7019 242.139 44.4955 240.631 42.5405C239.179 40.5855 237.308 39.0494 235.018 37.9323C232.727 36.7593 229.99 36.1728 226.807 36.1728C222.617 36.1728 219.154 37.1503 216.417 39.1053C213.736 41.0603 211.753 43.6018 210.468 46.7298C209.184 49.8578 208.541 53.2372 208.541 56.8679C208.541 60.4428 209.184 63.7942 210.468 66.9222C211.753 70.0502 213.736 72.5917 216.417 74.5467C219.154 76.4459 222.617 77.3954 226.807 77.3954Z" fill="white"/>
<path d="M265.562 86.4441V27.2075H276.035V76.8925H306.869V86.4441H265.562Z" fill="white"/>
<path d="M310.089 86.4439L332.795 27.2073H345.279L367.901 86.4439H356.59L352.652 75.4679H325.338L321.316 86.4439H310.089ZM328.689 66.0001H349.217L338.995 37.7643L328.689 66.0001Z" fill="white"/>
<path d="M374.875 86.4439V27.2073H386.102L414.673 70.357V27.2073H425.147V86.4439H414.171L385.348 43.5455V86.4439H374.875Z" fill="white"/>
<path d="M432.087 86.4441L454.793 27.2075H467.277L489.899 86.4441H478.588L474.65 75.4682H447.336L443.314 86.4441H432.087ZM450.687 66.0004H471.215L460.993 37.7645L450.687 66.0004Z" fill="white"/>
<path d="M496.873 86.4441V27.2075H538.263V36.7591H507.346V54.4379H533.823V63.9895H507.346V86.4441H496.873Z" fill="white"/>
<path d="M571.406 87.1144C565.765 87.1144 561.129 86.0252 557.498 83.8468C553.867 81.6125 551.186 78.4845 549.454 74.4628C547.723 70.441 546.857 65.6932 546.857 60.2192V27.2075H557.33V60.4705C557.33 63.4868 557.749 66.3076 558.587 68.9329C559.481 71.5023 560.961 73.569 563.028 75.133C565.15 76.697 567.999 77.479 571.574 77.479C575.205 77.479 577.998 76.697 579.953 75.133C581.963 73.5132 583.36 71.4185 584.142 68.8491C584.98 66.2797 585.399 63.4868 585.399 60.4705V27.2075H595.956V60.2192C595.956 65.6373 595.09 70.3573 593.358 74.379C591.627 78.4007 588.973 81.5287 585.399 83.763C581.824 85.9973 577.16 87.1144 571.406 87.1144Z" fill="white"/>
<path d="M608.81 86.4439V27.2073H620.038L648.609 70.357V27.2073H659.082V86.4439H648.106L619.284 43.5455V86.4439H608.81Z" fill="white"/>
<path d="M672.297 86.4439V27.2073H694.165C700.365 27.2073 705.615 28.4082 709.917 30.8101C714.218 33.1561 717.485 36.5634 719.719 41.0319C722.01 45.4447 723.155 50.7511 723.155 56.9513C723.155 63.0397 722.038 68.2903 719.803 72.703C717.625 77.1157 714.385 80.523 710.084 82.9249C705.783 85.2709 700.505 86.4439 694.249 86.4439H672.297ZM682.77 76.8923H693.997C698.41 76.8923 701.957 76.0544 704.638 74.3787C707.375 72.6471 709.358 70.3011 710.587 67.3407C711.872 64.3244 712.514 60.8333 712.514 56.8675C712.514 53.0133 711.899 49.5781 710.671 46.5618C709.442 43.5455 707.459 41.1716 704.722 39.44C702.041 37.6526 698.494 36.7589 694.081 36.7589H682.77V76.8923Z" fill="white"/>
<path d="M733.173 86.4439V27.2073H774.982V36.7589H743.646V52.343H770.876V61.7271H743.646V76.8923H774.982V86.4439H733.173Z" fill="white"/>
<path d="M784.968 86.4441V27.2075H806.836C813.036 27.2075 818.287 28.4084 822.588 30.8103C826.889 33.1563 830.157 36.5636 832.391 41.0322C834.681 45.4449 835.826 50.7513 835.826 56.9515C835.826 63.0399 834.709 68.2905 832.475 72.7032C830.296 77.116 827.057 80.5233 822.756 82.9251C818.455 85.2711 813.176 86.4441 806.92 86.4441H784.968ZM795.441 76.8925H806.669C811.081 76.8925 814.628 76.0547 817.309 74.379C820.046 72.6474 822.029 70.3014 823.258 67.341C824.543 64.3247 825.185 60.8336 825.185 56.8677C825.185 53.0136 824.571 49.5783 823.342 46.5621C822.113 43.5458 820.13 41.1718 817.393 39.4403C814.712 37.6528 811.165 36.7591 806.753 36.7591H795.441V76.8925Z" fill="white"/>
</g>
<defs>
<linearGradient id="paint0_linear_1_70" x1="1.67921" y1="1.23666e-09" x2="112.26" y2="27.3278" gradientUnits="userSpaceOnUse">
<stop stop-color="#14F195"/>
<stop offset="1" stop-color="#9945FF"/>
</linearGradient>
<clipPath id="clip0_1_70">
<rect width="698.216" height="111.715" fill="white" transform="translate(142.852 0.0888672)"/>
</clipPath>
</defs>
</svg>

<svg xmlns="http://www.w3.org/2000/svg" width="842" height="112" fill="none" viewBox="0 0 842 112"><path fill="url(#a)" fill-rule="evenodd" d="M18.03 3.74C10.266 7.99 1.68 23.611 1.68 33.476c0 7.79 6.856 19.223 9.668 16.12 1.017-1.123 3.17-6.215 4.787-11.32 5.548-17.524 8.754-18.822 46.542-18.822h33.462l4.797-7.942c2.638-4.37 4.799-8.766 4.804-9.775S87.508-.052 65.21.003C34.04.078 23.138.94 18.03 3.739m16.354 41.673c-2.014 4.868-3.662 9.266-3.662 9.774 0 .509 8.169.924 18.152.924 19.163 0 21.38 1.628 13.311 9.775-3.908 3.947-8.066 4.888-21.598 4.888H23.832l-5.886 18.328c-3.239 10.08-5.228 18.323-4.422 18.316s13.716-7.08 28.685-15.714C72.58 74.185 88.64 61.894 93.746 52.262c3.153-5.948 2.977-6.813-2.237-11.075-4.698-3.841-9.715-4.626-29.559-4.626H38.049z" clip-rule="evenodd"/><g fill="#fff" clip-path="url(#b)"><path d="M167.401 87.115q-5.949 0-11.227-1.76-5.195-1.844-8.714-5.781-3.519-4.021-4.608-10.473h10.641q1.005 3.268 3.183 5.11 2.263 1.844 5.279 2.598 3.017.67 6.116.67 2.766 0 5.195-.67 2.514-.755 4.106-2.43 1.675-1.675 1.675-4.44 0-2.095-.921-3.352-.839-1.341-2.43-2.178-1.508-.922-3.687-1.425a44 44 0 0 0-4.524-1.173q-2.43-.503-4.776-1.089a27.7 27.7 0 0 1-4.441-1.508 53 53 0 0 1-5.194-2.095q-2.43-1.257-4.273-3.016-1.76-1.76-2.849-4.357t-1.089-6.2q0-4.105 1.34-7.038 1.425-3.016 3.687-4.943a18.6 18.6 0 0 1 5.194-3.017 32 32 0 0 1 6.033-1.592q3.184-.502 6.033-.502 5.53 0 10.054 1.843 4.608 1.843 7.541 5.697t3.351 9.887h-10.138q-.335-2.85-2.011-4.524-1.675-1.76-4.189-2.514-2.514-.838-5.446-.838a24.4 24.4 0 0 0-4.022.335q-1.927.336-3.519 1.173a7.5 7.5 0 0 0-2.514 2.263q-.921 1.34-.921 3.435 0 1.843.921 3.267.923 1.34 2.514 2.263 1.676.922 3.938 1.675 2.933 1.173 6.368 1.76 3.519.585 6.619 1.592 3.016.838 5.53 2.094 2.596 1.173 4.44 2.933 1.844 1.676 2.849 4.19 1.089 2.43 1.089 5.864 0 5.028-1.843 8.546a15 15 0 0 1-4.943 5.614q-3.1 2.178-7.122 3.184-3.938.922-8.295.922m59.238 0q-9.132 0-15.584-3.855-6.368-3.854-9.803-10.724-3.351-6.87-3.352-15.668 0-8.965 3.436-15.752 3.435-6.87 9.886-10.724 6.451-3.939 15.585-3.938 9.132 0 15.5 3.854 6.452 3.855 9.887 10.724 3.435 6.787 3.435 15.668 0 8.798-3.435 15.668-3.352 6.87-9.887 10.809-6.452 3.938-15.668 3.938m.168-9.72q6.367 0 10.389-2.932t5.865-7.625q1.927-4.692 1.927-9.97 0-4.021-1.089-7.708-1.005-3.686-3.268-6.62-2.178-2.931-5.613-4.608-3.436-1.76-8.211-1.76-6.285 0-10.39 2.933-4.022 2.933-5.949 7.625t-1.927 10.138q0 5.362 1.927 10.054t5.949 7.625q4.105 2.848 10.39 2.848m38.755 9.049V27.207h10.473v49.686h30.834v9.551zm44.527 0 22.706-59.237h12.484l22.622 59.237H356.59l-3.938-10.976h-27.314l-4.022 10.976zM328.689 66h20.528l-10.222-28.236zm46.186 20.444V27.207h11.227l28.571 43.15v-43.15h10.474v59.237h-10.976l-28.823-42.899v42.899zm57.212 0 22.706-59.237h12.484l22.622 59.237h-11.311l-3.938-10.976h-27.314l-4.022 10.976zM450.687 66h20.528l-10.222-28.235zm46.186 20.444V27.207h41.39v9.552h-30.917v17.679h26.477v9.551h-26.477v22.455zm74.533.67q-8.461 0-13.908-3.267-5.446-3.351-8.044-9.384-2.597-6.033-2.597-14.244V27.207h10.473v33.264q0 4.524 1.257 8.462 1.34 3.854 4.441 6.2 3.183 2.346 8.546 2.346 5.446 0 8.379-2.346 3.015-2.43 4.189-6.284 1.257-3.854 1.257-8.379V27.209h10.557V60.22q0 8.127-2.598 14.16t-7.959 9.384-13.993 3.351m37.404-.671V27.207h11.228l28.571 43.15v-43.15h10.473v59.237h-10.976l-28.822-42.899v42.899zm63.487 0V27.207h21.868q9.3 0 15.752 3.603 6.451 3.519 9.802 10.222 3.436 6.62 3.436 15.92 0 9.132-3.352 15.751-3.267 6.62-9.719 10.222-6.451 3.519-15.835 3.519zm10.473-9.552h11.227q6.62 0 10.641-2.513 4.106-2.598 5.949-7.038 1.927-4.525 1.927-10.473 0-5.782-1.843-10.306-1.843-4.525-5.949-7.122-4.022-2.68-10.641-2.681H682.77zm50.403 9.552V27.207h41.809v9.552h-31.336v15.584h27.23v9.384h-27.23v15.165h31.336v9.552zm51.795 0V27.207h21.868q9.3 0 15.752 3.603 6.452 3.52 9.803 10.222 3.435 6.62 3.435 15.92 0 9.132-3.351 15.751-3.268 6.62-9.719 10.222-6.452 3.52-15.836 3.52zm10.473-9.552h11.228q6.618 0 10.64-2.513 4.106-2.598 5.949-7.038 1.927-4.524 1.927-10.473 0-5.781-1.843-10.306-1.844-4.524-5.949-7.122-4.022-2.68-10.64-2.68h-11.312z"/></g><defs><linearGradient id="a" x1="1.679" x2="112.26" y1="0" y2="27.328" gradientUnits="userSpaceOnUse"><stop stop-color="#14f195"/><stop offset="1" stop-color="#9945ff"/></linearGradient><clipPath id="b"><path fill="#fff" d="M142.852.089h698.216v111.715H142.852z"/></clipPath></defs></svg>
